images_elementary_svg/cmd/de/lc_italic.svg

<svg height="24" width="24" xmlns="http://www.w3.org/2000/svg" xmlns:xlink="http://www.w3.org/1999/xlink"><radialGradient id="a" cx="13" cy="7.158687" gradientTransform="matrix(-2.8900222 .00000025 -.00000038 -4.4461878 46.892902 34.82886)" gradientUnits="userSpaceOnUse" r="4.498236"><stop offset="0" stop-color="#737373"/><stop offset=".26238" stop-color="#636363"/><stop offset=".704952" stop-color="#4b4b4b"/><stop offset="1" stop-color="#3f3f3f"/></radialGradient><radialGradient id="b" cx="40" cy="43.5" gradientTransform="matrix(1 0 0 .75 -31.462778 9.875)" gradientUnits="userSpaceOnUse" r="2" xlink:href="#e"/><radialGradient id="c" cx="9" cy="43.5" gradientTransform="matrix(1 0 0 .75 -4.59375 9.875)" gradientUnits="userSpaceOnUse" r="2" xlink:href="#e"/><linearGradient id="d" gradientUnits="userSpaceOnUse" x1="16" x2="16" y1="44" y2="41"><stop offset="0" stop-opacity="0"/><stop offset=".5"/><stop offset="1" stop-opacity="0"/></linearGradient><linearGradient id="e"><stop offset="0"/><stop offset="1" stop-opacity="0"/></linearGradient><g transform="matrix(.60518445 0 0 1 2.333406 -21.5)"><path d="m8.537222 41v3h.5c.831 0 1.5-.669 1.5-1.5s-.669-1.5-1.5-1.5z" fill="url(#b)" opacity=".2"/><path d="m3.8125 41c-.7790625 0-1.40625.627187-1.40625 1.40625v.1875c0 .779063.6271875 1.40625 1.40625 1.40625h.59375v-3z" fill="url(#c)" opacity=".2"/><path d="m4.40625 41h4.130972v3h-4.130972z" fill="url(#d)" opacity=".2"/></g><path d="m15.907227 20.500511h-2.309314l-3.403774-7.639339-1.7730273 1.247686-1.2805196 6.391653h-2.0356979l3.1958268-16.001023h2.035698l-1.5979135 8.000512 1.6964145-1.838695 6.172762-6.161817h2.287424l-7.081164 6.971718z" fill="url(#a)" stroke="#000" stroke-opacity=".6"/><g transform="matrix(.60518445 0 0 1 11.333406 -21.5)"><path d="m8.537222 41v3h.5c.831 0 1.5-.669 1.5-1.5s-.669-1.5-1.5-1.5z" fill="url(#b)" opacity=".2"/><path d="m3.8125 41c-.7790625 0-1.40625.627187-1.40625 1.40625v.1875c0 .779063.6271875 1.40625 1.40625 1.40625h.59375v-3z" fill="url(#c)" opacity=".2"/><path d="m4.40625 41h4.130972v3h-4.130972z" fill="url(#d)" opacity=".2"/></g><path d="m8.3007812 4.5-3.1953124 16h.2988281l2.8964843-14.5h1.7363278l.298829-1.5zm8.3066408 0-6.171875 6.162109-1.3144532 1.423829-.3554688 1.78125.2734375-.191407 1.3964845-1.513672 6.171875-6.162109h.763672l1.523437-1.5zm-4.322266 8.007812-.470703.462891 3.414063 7.529297h.679687z" fill="#fdfdfd" opacity=".2"/></svg>

<?xml version="1.0" encoding="UTF-8" standalone="no"?>
<svg
   xmlns:dc="http://purl.org/dc/elements/1.1/"
   xmlns:cc="http://creativecommons.org/ns#"
   xmlns:rdf="http://www.w3.org/1999/02/22-rdf-syntax-ns#"
   xmlns:svg="http://www.w3.org/2000/svg"
   xmlns="http://www.w3.org/2000/svg"
   xmlns:xlink="http://www.w3.org/1999/xlink"
   xmlns:sodipodi="http://sodipodi.sourceforge.net/DTD/sodipodi-0.dtd"
   xmlns:inkscape="http://www.inkscape.org/namespaces/inkscape"
   height="24"
   width="24"
   version="1.1"
   id="svg39"
   sodipodi:docname="lc_italic.svg"
   inkscape:version="0.92.4 (unknown)"
   inkscape:export-filename="/home/rizmut/Dokumen/Rizmut/Github/libreoffice-style-elementary/images_elementary/cmd/de/lc_italic.png"
   inkscape:export-xdpi="96"
   inkscape:export-ydpi="96">
  <metadata
     id="metadata45">
    <rdf:RDF>
      <cc:Work
         rdf:about="">
        <dc:format>image/svg+xml</dc:format>
        <dc:type
           rdf:resource="http://purl.org/dc/dcmitype/StillImage" />
        <dc:title />
      </cc:Work>
    </rdf:RDF>
  </metadata>
  <defs
     id="defs43">
    <radialGradient
       inkscape:collect="always"
       xlink:href="#e"
       id="radialGradient901"
       cx="13"
       cy="7.1586866"
       fx="13"
       fy="7.1586866"
       r="4.4982357"
       gradientTransform="matrix(-2.8900222,2.4709558e-7,-3.8014694e-7,-4.4461878,46.892902,34.82886)"
       gradientUnits="userSpaceOnUse" />
    <radialGradient
       inkscape:collect="always"
       xlink:href="#b"
       id="radialGradient920"
       gradientUnits="userSpaceOnUse"
       gradientTransform="matrix(1,0,0,0.75,-31.462778,9.875)"
       cx="40"
       cy="43.5"
       r="2" />
    <radialGradient
       inkscape:collect="always"
       xlink:href="#b"
       id="radialGradient922"
       gradientUnits="userSpaceOnUse"
       gradientTransform="matrix(1,0,0,0.75,-4.59375,9.875)"
       cx="9"
       cy="43.5"
       r="2" />
    <linearGradient
       inkscape:collect="always"
       xlink:href="#d"
       id="linearGradient924"
       gradientUnits="userSpaceOnUse"
       x1="16"
       y1="44"
       x2="16"
       y2="41" />
    <linearGradient
       inkscape:collect="always"
       xlink:href="#d"
       id="linearGradient926"
       gradientUnits="userSpaceOnUse"
       x1="16"
       y1="44"
       x2="16"
       y2="41" />
  </defs>
  <sodipodi:namedview
     pagecolor="#ffffff"
     bordercolor="#666666"
     borderopacity="1"
     objecttolerance="10"
     gridtolerance="10"
     guidetolerance="10"
     inkscape:pageopacity="0"
     inkscape:pageshadow="2"
     inkscape:window-width="1366"
     inkscape:window-height="714"
     id="namedview41"
     showgrid="true"
     inkscape:zoom="19.666667"
     inkscape:cx="-5.9044172"
     inkscape:cy="8.7320643"
     inkscape:window-x="0"
     inkscape:window-y="28"
     inkscape:window-maximized="1"
     inkscape:current-layer="svg39">
    <inkscape:grid
       type="xygrid"
       id="grid852" />
  </sodipodi:namedview>
  <radialGradient
     id="a"
     cx="40"
     cy="43.5"
     gradientTransform="matrix(1,0,0,0.75,-31.462778,9.875)"
     gradientUnits="userSpaceOnUse"
     r="2"
     xlink:href="#b" />
  <linearGradient
     id="b">
    <stop
       offset="0"
       id="stop3" />
    <stop
       offset="1"
       stop-opacity="0"
       id="stop5" />
  </linearGradient>
  <radialGradient
     id="c"
     cx="9"
     cy="43.5"
     gradientTransform="matrix(1,0,0,0.75,-4.59375,9.875)"
     gradientUnits="userSpaceOnUse"
     r="2"
     xlink:href="#b" />
  <linearGradient
     id="d"
     gradientUnits="userSpaceOnUse"
     x1="16"
     x2="16"
     y1="44"
     y2="41">
    <stop
       offset="0"
       stop-opacity="0"
       id="stop9" />
    <stop
       offset=".5"
       id="stop11" />
    <stop
       offset="1"
       stop-opacity="0"
       id="stop13" />
  </linearGradient>
  <radialGradient
     id="e"
     cx="12.279661"
     cy="7.140932"
     gradientTransform="matrix(-3.1675784 .07135103 -.0749702 -3.3513607 51.71176 26.522026)"
     gradientUnits="userSpaceOnUse"
     r="5.015671">
    <stop
       offset="0"
       stop-color="#737373"
       id="stop16" />
    <stop
       offset=".26238"
       stop-color="#636363"
       id="stop18" />
    <stop
       offset=".704952"
       stop-color="#4b4b4b"
       id="stop20" />
    <stop
       offset="1"
       stop-color="#3f3f3f"
       id="stop22" />
  </radialGradient>
  <g
     transform="matrix(0.60518445,0,0,1,2.333406,-21.5)"
     id="g31">
    <path
       d="m 8.537222,41 v 3 h 0.5 c 0.831,0 1.5,-0.669 1.5,-1.5 0,-0.831 -0.669,-1.5 -1.5,-1.5 z"
       id="path25"
       style="opacity:0.2;fill:url(#a)"
       inkscape:connector-curvature="0" />
    <path
       d="m 3.8125,41 c -0.7790625,0 -1.40625,0.627187 -1.40625,1.40625 v 0.1875 C 2.40625,43.372813 3.0334375,44 3.8125,44 h 0.59375 v -3 z"
       id="path27"
       style="opacity:0.2;fill:url(#c)"
       inkscape:connector-curvature="0" />
    <path
       d="m 4.40625,41 h 4.130972 v 3 H 4.40625 Z"
       id="path29"
       style="opacity:0.2;fill:url(#linearGradient926)"
       inkscape:connector-curvature="0"
       sodipodi:nodetypes="ccccc" />
  </g>
  <g
     aria-label="K"
     style="font-style:normal;font-weight:normal;font-size:40px;line-height:1.25;font-family:sans-serif;letter-spacing:0px;word-spacing:0px;fill:url(#radialGradient901);fill-opacity:1;stroke:#000000;stroke-opacity:0.6"
     id="text856">
    <path
       d="M 15.907227,20.500511 H 13.597913 L 10.194139,12.861172 8.4211117,14.108858 7.1405921,20.500511 H 5.1048942 L 8.300721,4.499488 h 2.035698 L 8.7385055,12.5 10.43492,10.661305 16.607682,4.499488 h 2.287424 l -7.081164,6.971718 z"
       style="font-style:italic;font-variant:normal;font-weight:normal;font-stretch:normal;font-size:22.41456604px;font-family:'Droid Sans';-inkscape-font-specification:'Droid Sans';fill:url(#radialGradient901);fill-opacity:1;stroke:#000000;stroke-opacity:0.6"
       id="path842" />
  </g>
  <g
     id="g918"
     transform="matrix(0.60518445,0,0,1,11.333406,-21.5)">
    <path
       inkscape:connector-curvature="0"
       style="opacity:0.2;fill:url(#radialGradient920)"
       id="path912"
       d="m 8.537222,41 v 3 h 0.5 c 0.831,0 1.5,-0.669 1.5,-1.5 0,-0.831 -0.669,-1.5 -1.5,-1.5 z" />
    <path
       inkscape:connector-curvature="0"
       style="opacity:0.2;fill:url(#radialGradient922)"
       id="path914"
       d="m 3.8125,41 c -0.7790625,0 -1.40625,0.627187 -1.40625,1.40625 v 0.1875 C 2.40625,43.372813 3.0334375,44 3.8125,44 h 0.59375 v -3 z" />
    <path
       sodipodi:nodetypes="ccccc"
       inkscape:connector-curvature="0"
       style="opacity:0.2;fill:url(#linearGradient924)"
       id="path916"
       d="m 4.40625,41 h 4.130972 v 3 H 4.40625 Z" />
  </g>
  <path
     style="font-style:normal;font-weight:normal;font-size:40px;line-height:1.25;font-family:sans-serif;letter-spacing:0px;word-spacing:0px;fill:#fdfdfd;fill-opacity:1;stroke:none;stroke-opacity:1;opacity:0.2;"
     d="M 8.3007812 4.5 L 5.1054688 20.5 L 5.4042969 20.5 L 8.3007812 6 L 10.037109 6 L 10.335938 4.5 L 8.3007812 4.5 z M 16.607422 4.5 L 10.435547 10.662109 L 9.1210938 12.085938 L 8.765625 13.867188 L 9.0390625 13.675781 L 10.435547 12.162109 L 16.607422 6 L 17.371094 6 L 18.894531 4.5 L 16.607422 4.5 z M 12.285156 12.507812 L 11.814453 12.970703 L 15.228516 20.5 L 15.908203 20.5 L 12.285156 12.507812 z "
     id="text934" />
</svg>
